assets/img/icon-wordpress.svg

<?xml version="1.0" encoding="utf-8"?><!-- Uploaded to: SVG Repo, www.svgrepo.com, Generator: SVG Repo Mixer Tools -->
<svg width="800px" height="800px" viewBox="0 0 32 32" fill="none" xmlns="http://www.w3.org/2000/svg">
<circle cx="16" cy="16" r="14" fill="#028CB0"/>
<path d="M6.45538 16C6.45538 19.7823 8.65538 23.04 11.8369 24.5885L7.28462 12.1162C6.73798 13.338 6.45541 14.6615 6.45538 16ZM16 25.5446C17.1085 25.5446 18.1746 25.35 19.1731 25.0031L19.1054 24.8762L16.1692 16.8377L13.3092 25.1554C14.1554 25.4092 15.0608 25.5446 16 25.5446ZM17.3115 11.5238L20.7638 21.7877L21.72 18.6062C22.1262 17.2862 22.4392 16.3385 22.4392 15.5177C22.4392 14.3331 22.0162 13.5208 21.6608 12.8946C21.17 12.0992 20.7215 11.4308 20.7215 10.6523C20.7215 9.77231 21.3815 8.96 22.3292 8.96H22.4477C20.689 7.34546 18.3874 6.45141 16 6.45538C14.4192 6.45509 12.8632 6.84777 11.4718 7.59809C10.0805 8.34842 8.89746 9.43285 8.02923 10.7538L8.63846 10.7708C9.63692 10.7708 11.1769 10.6438 11.1769 10.6438C11.7015 10.6185 11.7608 11.3715 11.2446 11.4308C11.2446 11.4308 10.7285 11.4985 10.1446 11.5238L13.6308 21.8638L15.7208 15.6023L14.2315 11.5238C13.898 11.5054 13.565 11.4772 13.2331 11.4392C12.7169 11.4054 12.7762 10.6185 13.2923 10.6438C13.2923 10.6438 14.8662 10.7708 15.8054 10.7708C16.8038 10.7708 18.3438 10.6438 18.3438 10.6438C18.86 10.6185 18.9277 11.3715 18.4115 11.4308C18.4115 11.4308 17.8954 11.49 17.3115 11.5238ZM20.7977 24.25C22.2416 23.4104 23.4399 22.2066 24.2729 20.7589C25.1059 19.3112 25.5444 17.6703 25.5446 16C25.5446 14.3415 25.1215 12.7846 24.3769 11.4223C24.5281 12.9211 24.3012 14.4339 23.7169 15.8223L20.7977 24.25ZM16 27C13.0826 27 10.2847 25.8411 8.22183 23.7782C6.15893 21.7153 5 18.9174 5 16C5 13.0826 6.15893 10.2847 8.22183 8.22183C10.2847 6.15893 13.0826 5 16 5C18.9174 5 21.7153 6.15893 23.7782 8.22183C25.8411 10.2847 27 13.0826 27 16C27 18.9174 25.8411 21.7153 23.7782 23.7782C21.7153 25.8411 18.9174 27 16 27Z" fill="white"/>
</svg>

<svg xmlns="http://www.w3.org/2000/svg" width="800" height="800" fill="none" viewBox="0 0 32 32"><circle cx="16" cy="16" r="14" fill="#028cb0"/><path fill="#fff" d="M6.455 16c0 3.782 2.2 7.04 5.382 8.589L7.285 12.115A9.5 9.5 0 0 0 6.455 16M16 25.545a9.7 9.7 0 0 0 3.173-.542l-.068-.127-2.936-8.038-2.86 8.317c.846.254 1.752.39 2.691.39m1.311-14.021 3.453 10.264.956-3.182c.406-1.32.72-2.268.72-3.088 0-1.185-.424-1.997-.78-2.623-.49-.796-.939-1.464-.939-2.243 0-.88.66-1.692 1.608-1.692h.119A9.5 9.5 0 0 0 16 6.455a9.54 9.54 0 0 0-7.97 4.299l.608.017c.999 0 2.539-.127 2.539-.127.524-.026.584.727.068.787 0 0-.516.068-1.1.093l3.486 10.34 2.09-6.262-1.49-4.078a17 17 0 0 1-.998-.085c-.516-.034-.457-.82.06-.795 0 0 1.573.127 2.512.127.999 0 2.539-.127 2.539-.127.516-.026.584.727.067.787 0 0-.516.059-1.1.093m3.487 12.726a9.545 9.545 0 0 0 3.579-12.828 9 9 0 0 1-.66 4.4zM16 27a11 11 0 1 1 0-22 11 11 0 0 1 0 22"/></svg>
